Newaita-dark/apps/48/itch.svg

<svg height="48" viewBox="0 0 48 48" width="48" xmlns="http://www.w3.org/2000/svg" xmlns:xlink="http://www.w3.org/1999/xlink"><linearGradient id="a" gradientTransform="matrix(.0874317 0 0 .093759 1.491464 20.158178)" gradientUnits="userSpaceOnUse" x1="254" x2="254" y1="233.5" y2="254.666672"><stop offset="0" stop-opacity=".27451"/><stop offset="1" stop-opacity="0"/></linearGradient><linearGradient id="b"><stop offset="0" stop-opacity=".313726"/><stop offset=".222222" stop-opacity=".27451"/><stop offset="1" stop-opacity="0"/></linearGradient><radialGradient id="c" cx="450.908936" cy="189.579361" gradientTransform="matrix(.00000024 -.117199 -.196721 -.00000015 75.798389 95.392999)" gradientUnits="userSpaceOnUse" r="21.166656" xlink:href="#b"/><radialGradient id="d" cx="450.908936" cy="189.579361" gradientTransform="matrix(-.00000024 .117199 .196721 .00000015 -28.168841 -11.291218)" gradientUnits="userSpaceOnUse" r="21.166656" xlink:href="#b"/><radialGradient id="e" cx="450.908936" cy="189.579361" gradientTransform="matrix(-.00000024 -.117199 .196721 -.00000015 -28.168841 95.392999)" gradientUnits="userSpaceOnUse" r="21.166656" xlink:href="#b"/><radialGradient id="f" cx="450.908936" cy="189.579361" gradientTransform="matrix(.00000024 .117199 -.196721 .00000015 75.798387 -11.291219)" gradientUnits="userSpaceOnUse" r="21.166656" xlink:href="#b"/><linearGradient id="g" gradientUnits="userSpaceOnUse" x1="23.814786" x2="23.814786" y1="42.0509015" y2="4.34415649995"><stop offset="0" stop-color="#f44336"/><stop offset="1" stop-color="#ef5350"/></linearGradient><linearGradient id="h" gradientUnits="userSpaceOnUse" x1="23.824459" x2="23.824459" y1="41.55484659443" y2="3.84805459443"><stop offset="0" stop-color="#bdbdbd"/><stop offset="1" stop-color="#e0e0e0"/></linearGradient><path d="m8.664062 42.050781h30.304688v1.984375h-30.304688zm0 0" fill="url(#a)"/><path d="m38.96875 42.050781h3.699219v-1.984375h-3.699219zm0 0" fill="url(#c)"/><path d="m8.664062 42.050781h-3.703124v1.984375h3.703124zm0 0" fill="url(#d)"/><path d="m8.664062 42.050781h-3.703124v-1.984375h3.703124zm0 0" fill="url(#e)"/><path d="m38.96875 42.050781h3.699219v1.984375h-3.699219zm0 0" fill="url(#f)"/><path d="m6.945312 4.34375h33.738282c1.097656 0 1.984375.890625 1.984375 1.984375v33.738281c0 1.097656-.886719 1.984375-1.984375 1.984375h-33.738282c-1.09375 0-1.984374-.886719-1.984374-1.984375v-33.738281c0-1.09375.890624-1.984375 1.984374-1.984375zm0 0" fill="url(#g)"/><path d="m6.945312 4.34375c-1.097656 0-1.984374.886719-1.984374 1.984375v.503906c0-1.101562.886718-1.984375 1.984374-1.984375h33.738282c1.097656 0 1.984375.882813 1.984375 1.984375v-.503906c0-1.097656-.886719-1.984375-1.984375-1.984375zm0 0" fill="#fff" fill-opacity=".392157"/><path d="m6.945312 42.050781c-1.097656 0-1.984374-.886719-1.984374-1.984375v-.746094c0 1.101563.886718 1.988282 1.984374 1.988282h33.738282c1.097656 0 1.984375-.886719 1.984375-1.988282v.746094c0 1.097656-.886719 1.984375-1.984375 1.984375zm0 0" fill-opacity=".235294"/><path d="m74.076259-168.671091h359.840637c11.707216 0 21.164646 9.499093 21.164646 21.164646v359.840637c0 11.707215-9.45743 21.164645-21.164646 21.164645h-359.840637c-11.665552 0-21.164645-9.45743-21.164645-21.164645v-359.840637c0-11.665553 9.499093-21.164646 21.164645-21.164646zm0 0" fill="none" stroke="#212121" stroke-linecap="round" stroke-linejoin="round" stroke-width="3" transform="matrix(.093759 0 0 .093759 0 20.158175)"/><path d="m17.871094 15.257812c-2.75 0-4.960938 2.214844-4.960938 4.964844 0 1.121094.367188 2.152344.992188 2.980469v1.085937c0 3.296876 1.042968 5.953126 2.335937 5.953126h.289063c1.1875 0 2.164062-2.238282 2.316406-5.15625.507812-.097657.984375-.273438 1.421875-.515626.085937 1.109376 2.566406 1.109376 2.566406-.378906h1.984375c0 1.488282 2.480469 1.488282 2.566406.378906.4375.242188.917969.417969 1.425782.515626.152344 2.917968 1.125 5.15625 2.3125 5.15625h.289062c1.296875 0 2.335938-2.65625 2.335938-5.953126v-1.085937c.625-.828125.992187-1.859375.992187-2.980469 0-2.75-2.210937-4.964844-4.960937-4.964844-1.628906 0-3.070313.78125-3.972656 1.984376h-3.960938c-.902344-1.203126-2.34375-1.984376-3.972656-1.984376zm5.457031 3.226563h.992187c.273438 0 .496094.222656.496094.496094v1.488281h.992188l-1.984375 2.480469-1.984375-2.480469h.992187v-1.488281c0-.273438.222657-.496094.496094-.496094zm0 0" fill="url(#h)"/><path d="m17.871094 15.257812c-2.75 0-4.960938 2.214844-4.960938 4.960938 0 .105469.003906.210938.007813.316406.160156-2.605468 2.308593-4.65625 4.953125-4.65625 1.628906 0 3.070312.777344 3.972656 1.984375h3.960938c.902343-1.207031 2.34375-1.984375 3.972656-1.984375 2.644531 0 4.796875 2.050782 4.953125 4.65625.003906-.105468.007812-.210937.007812-.316406 0-2.746094-2.210937-4.960938-4.960937-4.960938-1.628906 0-3.070313.78125-3.972656 1.984376h-3.960938c-.902344-1.203126-2.34375-1.984376-3.972656-1.984376zm3.96875 5.832032 1.984375 2.480468 1.984375-2.480468h-.496094l-1.488281 1.859375-1.488281-1.859375zm0 0" fill="#f7f7f7"/><path d="m23.328125 18.476562c-.273437 0-.496094.222657-.496094.496094v1.09375c0-.273437.222657-.496094.496094-.496094h.992187c.273438 0 .496094.222657.496094.496094v-1.09375c0-.273437-.222656-.496094-.496094-.496094zm-1.488281 1.984376.875 1.09375h.117187v-1.09375zm2.976562 0v1.09375h.117188l.875-1.09375zm-11.878906.300781c-.019531.179687-.027344.359375-.027344.546875 0 1.121094.367188 2.152344.992188 2.984375v1.082031c0 3.296875 1.042968 5.953125 2.335937 5.953125h.289063c1.1875 0 2.164062-2.234375 2.316406-5.152344.507812-.101562.984375-.277343 1.421875-.519531.085937 1.109375 2.566406 1.109375 2.566406-.378906h1.984375c0 1.488281 2.480469 1.488281 2.566406.378906.4375.242188.917969.417969 1.425782.519531.152344 2.917969 1.125 5.152344 2.3125 5.152344h.289062c1.296875 0 2.335938-2.65625 2.335938-5.953125v-1.082031c.625-.832031.992187-1.863281.992187-2.984375 0-.1875-.007812-.367188-.027343-.546875-.101563.910156-.441407 1.742187-.964844 2.4375v1.082031c0 3.296875-1.039063 5.953125-2.335938 5.953125h-.289062c-1.1875 0-2.160156-2.238281-2.3125-5.152344-.507813-.101562-.988282-.277343-1.425782-.519531-.085937 1.109375-2.566406 1.109375-2.566406-.378906h-1.984375c0 1.488281-2.480469 1.488281-2.566406.378906-.4375.242188-.914063.417969-1.421875.519531-.152344 2.914063-1.128906 5.152344-2.316406 5.152344h-.289063c-1.292969 0-2.335937-2.65625-2.335937-5.953125v-1.082031c-.519532-.695313-.863282-1.527344-.964844-2.4375zm0 0" fill-opacity=".235294"/><path d="m190.50395-46.974117c-29.330533 0-52.911614 23.622745-52.911614 52.953277 0 11.957191 3.916293 22.956141 10.582323 31.788631v11.582227c0 35.163309 11.123937 63.493937 24.914287 63.493937h3.083039c12.665457 0 23.081129-23.87272 24.705974-54.994748 5.41615-1.041568 10.498997-2.916389 15.165219-5.499475.916579 11.832203 27.372386 11.832203 27.372386-4.041281h21.164645c0 15.873484 26.455807 15.873484 27.372386 4.041281 4.666221 2.583086 9.790732 4.457907 15.206881 5.499475 1.624845 31.122028 11.998855 54.994748 24.664312 54.994748h3.083039c13.832012 0 24.914287-28.330628 24.914287-63.493937v-11.582227c6.66603-8.83249 10.582323-19.83144 10.582323-31.788631 0-29.330532-23.581082-52.953277-52.911614-52.953277-17.373341 0-32.746873 8.332538-42.370954 21.164646h-42.245965c-9.624081-12.832108-24.997613-21.164646-42.370954-21.164646zm58.202775 34.413381h10.582323c2.916388 0 5.291161 2.374773 5.291161 5.291161v15.873484h10.582323l-21.164646 26.455807-21.164645-26.455807h10.582323v-15.873484c0-2.916388 2.374773-5.291161 5.291161-5.291161zm0 0" fill="none" stroke="#212121" stroke-linecap="round" stroke-linejoin="round" stroke-width="3" transform="matrix(.093759 0 0 .093759 .009643 19.662056)"/></svg>

<?xml version="1.0" encoding="UTF-8"?>
<svg xmlns="http://www.w3.org/2000/svg" xmlns:xlink="http://www.w3.org/1999/xlink" width="48px" height="48px" viewBox="0 0 48 48" version="1.1">
<defs>
<linearGradient id="linear0" gradientUnits="userSpaceOnUse" x1="254" y1="233.5" x2="254" y2="254.666672" gradientTransform="matrix(0.0874317,0,0,0.093759,1.491464,20.158178)">
<stop offset="0" style="stop-color:rgb(0%,0%,0%);stop-opacity:0.27451;"/>
<stop offset="1" style="stop-color:rgb(0%,0%,0%);stop-opacity:0;"/>
</linearGradient>
<radialGradient id="radial0" gradientUnits="userSpaceOnUse" cx="450.908936" cy="189.579361" fx="450.908936" fy="189.579361" r="21.166656" gradientTransform="matrix(0.000000243625,-0.117199,-0.196721,-0.000000152308,75.798389,95.392999)">
<stop offset="0" style="stop-color:rgb(0%,0%,0%);stop-opacity:0.313726;"/>
<stop offset="0.222222" style="stop-color:rgb(0%,0%,0%);stop-opacity:0.27451;"/>
<stop offset="1" style="stop-color:rgb(0%,0%,0%);stop-opacity:0;"/>
</radialGradient>
<radialGradient id="radial1" gradientUnits="userSpaceOnUse" cx="450.908936" cy="189.579361" fx="450.908936" fy="189.579361" r="21.166656" gradientTransform="matrix(-0.000000243625,0.117199,0.196721,0.000000152308,-28.168841,-11.291218)">
<stop offset="0" style="stop-color:rgb(0%,0%,0%);stop-opacity:0.313726;"/>
<stop offset="0.222222" style="stop-color:rgb(0%,0%,0%);stop-opacity:0.27451;"/>
<stop offset="1" style="stop-color:rgb(0%,0%,0%);stop-opacity:0;"/>
</radialGradient>
<radialGradient id="radial2" gradientUnits="userSpaceOnUse" cx="450.908936" cy="189.579361" fx="450.908936" fy="189.579361" r="21.166656" gradientTransform="matrix(-0.000000243625,-0.117199,0.196721,-0.000000152308,-28.168841,95.392999)">
<stop offset="0" style="stop-color:rgb(0%,0%,0%);stop-opacity:0.313726;"/>
<stop offset="0.222222" style="stop-color:rgb(0%,0%,0%);stop-opacity:0.27451;"/>
<stop offset="1" style="stop-color:rgb(0%,0%,0%);stop-opacity:0;"/>
</radialGradient>
<radialGradient id="radial3" gradientUnits="userSpaceOnUse" cx="450.908936" cy="189.579361" fx="450.908936" fy="189.579361" r="21.166656" gradientTransform="matrix(0.000000243625,0.117199,-0.196721,0.000000152308,75.798387,-11.291219)">
<stop offset="0" style="stop-color:rgb(0%,0%,0%);stop-opacity:0.313726;"/>
<stop offset="0.222222" style="stop-color:rgb(0%,0%,0%);stop-opacity:0.27451;"/>
<stop offset="1" style="stop-color:rgb(0%,0%,0%);stop-opacity:0;"/>
</radialGradient>
<linearGradient id="linear1" gradientUnits="userSpaceOnUse" x1="254" y1="233.5" x2="254" y2="-168.666672" gradientTransform="matrix(0.093759,0,0,0.093759,0,20.158175)">
<stop offset="0" style="stop-color:rgb(95.686275%,26.274511%,21.176471%);stop-opacity:1;"/>
<stop offset="1" style="stop-color:rgb(93.725491%,32.549021%,31.37255%);stop-opacity:1;"/>
</linearGradient>
<linearGradient id="linear2" gradientUnits="userSpaceOnUse" x1="960" y1="1715.117188" x2="960" y2="195.117188" gradientTransform="matrix(0.0248071,0,0,0.0248071,0.00964294,-0.992237)">
<stop offset="0" style="stop-color:rgb(74.117649%,74.117649%,74.117649%);stop-opacity:1;"/>
<stop offset="1" style="stop-color:rgb(87.843138%,87.843138%,87.843138%);stop-opacity:1;"/>
</linearGradient>
</defs>
<g id="surface1">
<path style=" stroke:none;fill-rule:nonzero;fill:url(#linear0);" d="M 8.664062 42.050781 L 38.96875 42.050781 L 38.96875 44.035156 L 8.664062 44.035156 Z M 8.664062 42.050781 "/>
<path style=" stroke:none;fill-rule:nonzero;fill:url(#radial0);" d="M 38.96875 42.050781 L 42.667969 42.050781 L 42.667969 40.066406 L 38.96875 40.066406 Z M 38.96875 42.050781 "/>
<path style=" stroke:none;fill-rule:nonzero;fill:url(#radial1);" d="M 8.664062 42.050781 L 4.960938 42.050781 L 4.960938 44.035156 L 8.664062 44.035156 Z M 8.664062 42.050781 "/>
<path style=" stroke:none;fill-rule:nonzero;fill:url(#radial2);" d="M 8.664062 42.050781 L 4.960938 42.050781 L 4.960938 40.066406 L 8.664062 40.066406 Z M 8.664062 42.050781 "/>
<path style=" stroke:none;fill-rule:nonzero;fill:url(#radial3);" d="M 38.96875 42.050781 L 42.667969 42.050781 L 42.667969 44.035156 L 38.96875 44.035156 Z M 38.96875 42.050781 "/>
<path style=" stroke:none;fill-rule:nonzero;fill:url(#linear1);" d="M 6.945312 4.34375 L 40.683594 4.34375 C 41.78125 4.34375 42.667969 5.234375 42.667969 6.328125 L 42.667969 40.066406 C 42.667969 41.164062 41.78125 42.050781 40.683594 42.050781 L 6.945312 42.050781 C 5.851562 42.050781 4.960938 41.164062 4.960938 40.066406 L 4.960938 6.328125 C 4.960938 5.234375 5.851562 4.34375 6.945312 4.34375 Z M 6.945312 4.34375 "/>
<path style=" stroke:none;fill-rule:nonzero;fill:rgb(100%,100%,100%);fill-opacity:0.392157;" d="M 6.945312 4.34375 C 5.847656 4.34375 4.960938 5.230469 4.960938 6.328125 L 4.960938 6.832031 C 4.960938 5.730469 5.847656 4.847656 6.945312 4.847656 L 40.683594 4.847656 C 41.78125 4.847656 42.667969 5.730469 42.667969 6.832031 L 42.667969 6.328125 C 42.667969 5.230469 41.78125 4.34375 40.683594 4.34375 Z M 6.945312 4.34375 "/>
<path style=" stroke:none;fill-rule:nonzero;fill:rgb(0%,0%,0%);fill-opacity:0.235294;" d="M 6.945312 42.050781 C 5.847656 42.050781 4.960938 41.164062 4.960938 40.066406 L 4.960938 39.320312 C 4.960938 40.421875 5.847656 41.308594 6.945312 41.308594 L 40.683594 41.308594 C 41.78125 41.308594 42.667969 40.421875 42.667969 39.320312 L 42.667969 40.066406 C 42.667969 41.164062 41.78125 42.050781 40.683594 42.050781 Z M 6.945312 42.050781 "/>
<path style="fill:none;stroke-width:3;stroke-linecap:round;stroke-linejoin:round;stroke:rgb(12.941177%,12.941177%,12.941177%);stroke-opacity:1;stroke-miterlimit:4;" d="M 74.076259 -168.671091 L 433.916896 -168.671091 C 445.624112 -168.671091 455.081542 -159.171998 455.081542 -147.506445 L 455.081542 212.334192 C 455.081542 224.041407 445.624112 233.498837 433.916896 233.498837 L 74.076259 233.498837 C 62.410707 233.498837 52.911614 224.041407 52.911614 212.334192 L 52.911614 -147.506445 C 52.911614 -159.171998 62.410707 -168.671091 74.076259 -168.671091 Z M 74.076259 -168.671091 " transform="matrix(0.093759,0,0,0.093759,0,20.158175)"/>
<path style=" stroke:none;fill-rule:nonzero;fill:url(#linear2);" d="M 17.871094 15.257812 C 15.121094 15.257812 12.910156 17.472656 12.910156 20.222656 C 12.910156 21.34375 13.277344 22.375 13.902344 23.203125 L 13.902344 24.289062 C 13.902344 27.585938 14.945312 30.242188 16.238281 30.242188 L 16.527344 30.242188 C 17.714844 30.242188 18.691406 28.003906 18.84375 25.085938 C 19.351562 24.988281 19.828125 24.8125 20.265625 24.570312 C 20.351562 25.679688 22.832031 25.679688 22.832031 24.191406 L 24.816406 24.191406 C 24.816406 25.679688 27.296875 25.679688 27.382812 24.570312 C 27.820312 24.8125 28.300781 24.988281 28.808594 25.085938 C 28.960938 28.003906 29.933594 30.242188 31.121094 30.242188 L 31.410156 30.242188 C 32.707031 30.242188 33.746094 27.585938 33.746094 24.289062 L 33.746094 23.203125 C 34.371094 22.375 34.738281 21.34375 34.738281 20.222656 C 34.738281 17.472656 32.527344 15.257812 29.777344 15.257812 C 28.148438 15.257812 26.707031 16.039062 25.804688 17.242188 L 21.84375 17.242188 C 20.941406 16.039062 19.5 15.257812 17.871094 15.257812 Z M 23.328125 18.484375 L 24.320312 18.484375 C 24.59375 18.484375 24.816406 18.707031 24.816406 18.980469 L 24.816406 20.46875 L 25.808594 20.46875 L 23.824219 22.949219 L 21.839844 20.46875 L 22.832031 20.46875 L 22.832031 18.980469 C 22.832031 18.707031 23.054688 18.484375 23.328125 18.484375 Z M 23.328125 18.484375 "/>
<path style=" stroke:none;fill-rule:nonzero;fill:rgb(96.862745%,96.862745%,96.862745%);fill-opacity:1;" d="M 17.871094 15.257812 C 15.121094 15.257812 12.910156 17.472656 12.910156 20.21875 C 12.910156 20.324219 12.914062 20.429688 12.917969 20.535156 C 13.078125 17.929688 15.226562 15.878906 17.871094 15.878906 C 19.5 15.878906 20.941406 16.65625 21.84375 17.863281 L 25.804688 17.863281 C 26.707031 16.65625 28.148438 15.878906 29.777344 15.878906 C 32.421875 15.878906 34.574219 17.929688 34.730469 20.535156 C 34.734375 20.429688 34.738281 20.324219 34.738281 20.21875 C 34.738281 17.472656 32.527344 15.257812 29.777344 15.257812 C 28.148438 15.257812 26.707031 16.039062 25.804688 17.242188 L 21.84375 17.242188 C 20.941406 16.039062 19.5 15.257812 17.871094 15.257812 Z M 21.839844 21.089844 L 23.824219 23.570312 L 25.808594 21.089844 L 25.3125 21.089844 L 23.824219 22.949219 L 22.335938 21.089844 Z M 21.839844 21.089844 "/>
<path style=" stroke:none;fill-rule:nonzero;fill:rgb(0%,0%,0%);fill-opacity:0.235294;" d="M 23.328125 18.476562 C 23.054688 18.476562 22.832031 18.699219 22.832031 18.972656 L 22.832031 20.066406 C 22.832031 19.792969 23.054688 19.570312 23.328125 19.570312 L 24.320312 19.570312 C 24.59375 19.570312 24.816406 19.792969 24.816406 20.066406 L 24.816406 18.972656 C 24.816406 18.699219 24.59375 18.476562 24.320312 18.476562 Z M 21.839844 20.460938 L 22.714844 21.554688 L 22.832031 21.554688 L 22.832031 20.460938 Z M 24.816406 20.460938 L 24.816406 21.554688 L 24.933594 21.554688 L 25.808594 20.460938 Z M 12.9375 20.761719 C 12.917969 20.941406 12.910156 21.121094 12.910156 21.308594 C 12.910156 22.429688 13.277344 23.460938 13.902344 24.292969 L 13.902344 25.375 C 13.902344 28.671875 14.945312 31.328125 16.238281 31.328125 L 16.527344 31.328125 C 17.714844 31.328125 18.691406 29.09375 18.84375 26.175781 C 19.351562 26.074219 19.828125 25.898438 20.265625 25.65625 C 20.351562 26.765625 22.832031 26.765625 22.832031 25.277344 L 24.816406 25.277344 C 24.816406 26.765625 27.296875 26.765625 27.382812 25.65625 C 27.820312 25.898438 28.300781 26.074219 28.808594 26.175781 C 28.960938 29.09375 29.933594 31.328125 31.121094 31.328125 L 31.410156 31.328125 C 32.707031 31.328125 33.746094 28.671875 33.746094 25.375 L 33.746094 24.292969 C 34.371094 23.460938 34.738281 22.429688 34.738281 21.308594 C 34.738281 21.121094 34.730469 20.941406 34.710938 20.761719 C 34.609375 21.671875 34.269531 22.503906 33.746094 23.199219 L 33.746094 24.28125 C 33.746094 27.578125 32.707031 30.234375 31.410156 30.234375 L 31.121094 30.234375 C 29.933594 30.234375 28.960938 27.996094 28.808594 25.082031 C 28.300781 24.980469 27.820312 24.804688 27.382812 24.5625 C 27.296875 25.671875 24.816406 25.671875 24.816406 24.183594 L 22.832031 24.183594 C 22.832031 25.671875 20.351562 25.671875 20.265625 24.5625 C 19.828125 24.804688 19.351562 24.980469 18.84375 25.082031 C 18.691406 27.996094 17.714844 30.234375 16.527344 30.234375 L 16.238281 30.234375 C 14.945312 30.234375 13.902344 27.578125 13.902344 24.28125 L 13.902344 23.199219 C 13.382812 22.503906 13.039062 21.671875 12.9375 20.761719 Z M 12.9375 20.761719 "/>
<path style="fill:none;stroke-width:3;stroke-linecap:round;stroke-linejoin:round;stroke:rgb(12.941177%,12.941177%,12.941177%);stroke-opacity:1;stroke-miterlimit:4;" d="M 190.50395 -46.974117 C 161.173417 -46.974117 137.592336 -23.351372 137.592336 5.97916 C 137.592336 17.936351 141.508629 28.935301 148.174659 37.767791 L 148.174659 49.350018 C 148.174659 84.513327 159.298596 112.843955 173.088946 112.843955 L 176.171985 112.843955 C 188.837442 112.843955 199.253114 88.971235 200.877959 57.849207 C 206.294109 56.807639 211.376956 54.932818 216.043178 52.349732 C 216.959757 64.181935 243.415564 64.181935 243.415564 48.308451 L 264.580209 48.308451 C 264.580209 64.181935 291.036016 64.181935 291.952595 52.349732 C 296.618816 54.932818 301.743327 56.807639 307.159476 57.849207 C 308.784321 88.971235 319.158331 112.843955 331.823788 112.843955 L 334.906827 112.843955 C 348.738839 112.843955 359.821114 84.513327 359.821114 49.350018 L 359.821114 37.767791 C 366.487144 28.935301 370.403437 17.936351 370.403437 5.97916 C 370.403437 -23.351372 346.822355 -46.974117 317.491823 -46.974117 C 300.118482 -46.974117 284.74495 -38.641579 275.120869 -25.809471 L 232.874904 -25.809471 C 223.250823 -38.641579 207.877291 -46.974117 190.50395 -46.974117 Z M 248.706725 -12.560736 L 259.289048 -12.560736 C 262.205436 -12.560736 264.580209 -10.185963 264.580209 -7.269575 L 264.580209 8.603909 L 275.162532 8.603909 L 253.997886 35.059716 L 232.833241 8.603909 L 243.415564 8.603909 L 243.415564 -7.269575 C 243.415564 -10.185963 245.790337 -12.560736 248.706725 -12.560736 Z M 248.706725 -12.560736 " transform="matrix(0.093759,0,0,0.093759,0.00964294,19.662056)"/>
</g>
</svg>
